material/.icons/material/movie-open.svg

<svg xmlns="http://www.w3.org/2000/svg" viewBox="0 0 24 24"><path d="M20.84 2.18l-3.93.78 2.74 3.54 1.97-.4-.78-3.92m-6.87 1.36L12 3.93l2.75 3.53 1.96-.39-2.74-3.53m-4.9.96l-1.97.41 2.75 3.53 1.96-.39L9.07 4.5m-4.91 1l-.98.19a2 2 0 00-1.57 2.35L2 10l4.9-.97L4.16 5.5M2 10v10a2 2 0 002 2h16c1.11 0 2-.89 2-2V10H2z"/></svg>

<?xml version="1.0" encoding="UTF-8"?><!DOCTYPE svg PUBLIC "-//W3C//DTD SVG 1.1//EN" "http://www.w3.org/Graphics/SVG/1.1/DTD/svg11.dtd"><svg xmlns="http://www.w3.org/2000/svg" xmlns:xlink="http://www.w3.org/1999/xlink" version="1.1" id="mdi-movie-open" width="24" height="24" viewBox="0 0 24 24"><path d="M20.84 2.18L16.91 2.96L19.65 6.5L21.62 6.1L20.84 2.18M13.97 3.54L12 3.93L14.75 7.46L16.71 7.07L13.97 3.54M9.07 4.5L7.1 4.91L9.85 8.44L11.81 8.05L9.07 4.5M4.16 5.5L3.18 5.69A2 2 0 0 0 1.61 8.04L2 10L6.9 9.03L4.16 5.5M2 10V20C2 21.11 2.9 22 4 22H20C21.11 22 22 21.11 22 20V10H2Z" /></svg>
